X:7712
T:Tuamgraney Castle
O:england
M:4/4
L:1/8
Q:50
C:Trad
S:Siobhan Kelly
R:hornpipe
K:G
|:cB|AGAB AGEG|AGAB cBcd|(3efg fa g2 ed |1 B2 G2 G2:|2 c2 A2 A2||
|:(3efg |agab ageg | agab a2 ge | dega g2 ed |1 B2 G2 G2:|2 c2 A2 A2||
|(3efg | agab ageg | agab a2 ge | dega g2 ed|B2 G2 G2 cB|
AGAB AGEG|AGAB cBcd|(3efg fa g2 ed | c2 A2 A2||


